X: 329
T: THE BAY OF BISCAY O
T: Caladh na bhuasce o
B: O'Neill's 329
M: C
L: 1/8
Z: 1999 by John Chambers <jc@trillian.mit.edu>
N: "Quick and spirit"
K:D
A \
|Addf d2 Bc/d/|ef a/g/f/e/ d2 cA \
|Addf af dd/e/|fdec d2||
||dc \
|.B.A.G.F E3e|ef g/f/e/d/ HdcedHc .A.B/.c/ \
|d2 .B.c/.d/ e2 .d.e/.f/|a/g/f/g/ fe d2z||
